X:1
T:Title
%%score { 1 | ( 2 3 ) }
L:1/8
Q:1/4=93
M:6/8
K:F
V:1 treble nm="Grand Piano"
V:2 bass 
V:3 bass 
V:1
 c2 A AGF | [Ec]2 [EG] [EG]3 | [Gc]2 A AGF | [Ec]2 [EG] [EG]3 | [Ec]2 A AGF | DF[DB] [Fd]3 | %6
w: T.~E.~Perkins * * * *||||||
 [Fc]2 [CFA] [B,EG]F[B,EG] | [Ec]2 F F3 | [EG]2 [EG] [EG][FA][GB] | [Fd]2 [D_A=B] .[C=Ac]3 | %10
w: ||||
 A2 G FED | [^CA]2 [CE] .[CE]3 | [EG]2 [EG] [EG][FA][GB] | [Fd]2 [_A=B] .[=Ac]3 | GA=B cde | %15
w: |||||
 d2 =B [Ec]3 | c2 A AGF | [Ec]2 [EG] [EG]3 | [Gc]2 A AGF | [Ec]2 [EG] [EG]3 | [Ec]2 A AGF | %21
w: ||||||
 DF[DB] [Fd]3 | [Fc]2 [CFA] [B,EG]F[B,EG] |[M:7/4] [Ec]2 F F3 z2 z2 z4 |] %24
w: |||
V:2
 [F,A,F]2 [F,CF] [CF][B,E][F,A,] | [C,G,]2 [C,C] [C,C]3 | [E,C]2 [F,CF] [CF][B,E][F,A,] | %3
 [C,G,]2 [C,C] [C,C]3 | [C,C]2 [F,CF] [CF][B,E][F,A,] | B,D[B,,F,] [B,,B,]3 | [F,A,]2 F, z A,C, | %7
 [C,B,]2 [F,,F,] [F,,F,]3 | [C,C]2 [C,C] [C,C]2 [C,C] | [F,B,]2 F, .F,3 | A,2 G, F,E,D, | %11
 [A,,E,]2 [A,,A,] .[A,,A,]3 | [C,C]2 [C,C] [C,C]2 [C,C] | [F,B,]2 [F,D] .[F,C]3 | %14
 =B,[K:treble][CF][G,DF] [CE][B,F][CG] | [G,=B,F]2 [G,DF][K:bass] [C,C]3 | %16
 [F,A,F]2 [F,CF] [CF][B,E][F,A,] | [C,G,]2 [C,C] [C,C]3 | [E,C]2 [F,CF] [CF][B,E][F,A,] | %19
 [C,G,]2 [C,C] [C,C]3 | [C,C]2 [F,CF] [CF][B,E][F,A,] | B,D[B,,F,] [B,,B,]3 | [F,A,]2 F, z A,C, | %23
[M:7/4] [C,B,]2 [F,,F,] [F,,F,]3 z2 z2 z4 |] %24
V:3
 z3 .F,3 | x6 | z3 .F,3 | x6 | z3 .F,3 | .[B,,F,]3 z3 | z3 .C,3 | x6 | x6 | x6 | x6 | x6 | x6 | %13
 x6 | .G,3[K:treble] .G,3 | x3[K:bass] x3 | z3 .F,3 | x6 | z3 .F,3 | x6 | z3 .F,3 | .[B,,F,]3 z3 | %22
 z3 .C,3 |[M:7/4] x14 |] %24

